X: 41617
T: Up In The Garret
R: slip jig
M: 9/8
K: Adorian
|:dcB ABE A3|dcB ABG efg|dcB ABG A2 e|dBG D3 Bcd:|
|:BAB e2 d e3|ABB e2 d efg|B3 e2 d efg|dBG GAG Bcd:|

